X: 41343
T: Turning Of The Season, The
R: waltz
M: 3/4
K: Gmajor
|:B,D|"Em" E3 F ED|"G" D3 d cB|"Am" B2 A3 G|
"C" G3 G ED|"Bm" B3 d eB|"Am" B2 A2{B2A2}G2|
"C" E3 B GA|"D" A4 B,D|"Em" E3 F ED|
"G" D3 d cB|"Am" B2 A2 G2|"C" e3 d BA|
"Bm" B3 A GE|"Am" A3 E DB,|"D" A,3 B, A,G,|
"C" G,4 dc|"G" c2 B2 d2|"D/F#" a4-ab|
"C" b2 g3 d|"G" AB B3 d|"F" Bc A2 G2|
"C" DE E3 G|"Am" DE E2 D2|"D" A,4 dc|
"G" c2 B2 d2|"Bm" a4-af|"C" fg d4|
"Bm" de A4|"F" AB G2 D2|"Am" A,B, B,2 G,2|"Dsus" A,6-|"D"A,4:|

